packages/astro-components-stencil/src/icons/mic-none.svg

<svg width="24" height="24" viewBox="0 0 24 24" fill="none" xmlns="http://www.w3.org/2000/svg">
<path fill-rule="evenodd" clip-rule="evenodd" d="M12 14C13.66 14 15 12.66 15 11V5C15 3.34 13.66 2 12 2C10.34 2 8.99999 3.34 8.99999 5V11C8.99999 12.66 10.34 14 12 14ZM11 5C11 4.45 11.45 4 12 4C12.55 4 13 4.45 13 5V11C13 11.55 12.55 12 12 12C11.45 12 11 11.55 11 11V5ZM16.93 11.85C17.01 11.36 17.42 11 17.91 11C18.52 11 19.01 11.54 18.91 12.14C18.42 15.14 16.02 17.49 13 17.92V20C13 20.55 12.55 21 12 21C11.45 21 11 20.55 11 20V17.92C7.97999 17.49 5.57999 15.14 5.08999 12.14C4.99999 11.54 5.47999 11 6.08999 11C6.57999 11 6.98999 11.36 7.06999 11.85C7.47999 14.2 9.52999 16 12 16C14.47 16 16.52 14.2 16.93 11.85Z" fill="black"/>
</svg>

<svg xmlns="http://www.w3.org/2000/svg" viewBox="0 0 24 24"><g xmlns="http://www.w3.org/2000/svg" id="mic-none" fill-rule="nonzero">
            <path d="M12 14c1.66 0 3-1.34 3-3V5c0-1.66-1.34-3-3-3S9 3.34 9 5v6c0 1.66 1.34 3 3 3zm-1-9c0-.55.45-1 1-1s1 .45 1 1v6c0 .55-.45 1-1 1s-1-.45-1-1V5zm6.91 6c-.49 0-.9.36-.98.85C16.52 14.2 14.47 16 12 16c-2.47 0-4.52-1.8-4.93-4.15a.998.998 0 00-.98-.85c-.61 0-1.09.54-1 1.14.49 3 2.89 5.35 5.91 5.78V20c0 .55.45 1 1 1s1-.45 1-1v-2.08a6.993 6.993 0 005.91-5.78c.1-.6-.39-1.14-1-1.14z"/>
        </g></svg>
